svg/24/package.svg

<svg width="24" height="24" viewBox="0 0 24 24" fill="currentColor" xmlns="http://www.w3.org/2000/svg"><path fill-rule="evenodd" clip-rule="evenodd" d="M12.9713 2.53977C12.3672 2.20419 11.6328 2.20419 11.0287 2.53977L4.02871 6.42866C3.39378 6.7814 3 7.45064 3 8.17697V15.8234C3 16.5497 3.39378 17.2189 4.02871 17.5717L11.0287 21.4606C11.6328 21.7961 12.3672 21.7961 12.9713 21.4606L19.9713 17.5717C20.6062 17.2189 21 16.5497 21 15.8234V8.17697C21 7.45064 20.6062 6.7814 19.9713 6.42866L12.9713 2.53977ZM12.2428 3.85101L18.6397 7.40483L16.1604 8.79944L9.59893 5.05003L11.7572 3.85101C11.9082 3.76711 12.0918 3.76711 12.2428 3.85101ZM8.06597 5.90168L5.3603 7.40483L12 11.1397L14.6368 9.65645L8.06597 5.90168ZM4.5 15.8234V8.64193L11.25 12.4388V19.8676L4.75718 16.2604C4.59845 16.1723 4.5 16.0049 4.5 15.8234ZM19.2428 16.2604L12.75 19.8676V12.4388L19.5 8.64193V15.8234C19.5 16.0049 19.4016 16.1723 19.2428 16.2604Z"/></svg>

<svg xmlns="http://www.w3.org/2000/svg" width="24" height="24" fill="currentColor" viewBox="0 0 24 24">
  <path fill-rule="evenodd" d="M12.971 2.54a2 2 0 0 0-1.942 0l-7 3.889A2 2 0 0 0 3 8.177v7.646a2 2 0 0 0 1.029 1.749l7 3.889a2 2 0 0 0 1.942 0l7-3.89A2 2 0 0 0 21 15.824V8.177a2 2 0 0 0-1.029-1.748l-7-3.89Zm-.728 1.311 6.397 3.554-2.48 1.394L9.6 5.05l2.158-1.199a.5.5 0 0 1 .486 0Zm-4.177 2.05L5.36 7.406 12 11.14l2.637-1.484-6.571-3.754ZM4.5 15.824V8.642l6.75 3.797v7.429L4.757 16.26a.5.5 0 0 1-.257-.437Zm14.743.437-6.493 3.608v-7.43l6.75-3.796v7.181a.5.5 0 0 1-.257.437Z" clip-rule="evenodd"/>
</svg>
